src/assets/filled/Milk.svg

<svg width="24" height="24" viewBox="0 0 24 24"  xmlns="http://www.w3.org/2000/svg">
<path d="M18 16.0002V19.0002C18 20.6502 16.65 22.0002 15 22.0002H9C7.35 22.0002 6 20.6502 6 19.0002V14.9902C6 14.4402 6.45 13.9902 7.01 13.9902L9.89 14.0002C10.58 14.0002 11.26 14.1502 11.89 14.4502C12.58 14.7702 13.31 15.0002 14.08 15.0002H17C17.55 15.0002 18 15.4502 18 16.0002Z" />
<path d="M17.41 9.41L15.29 7.29C15.1 7.1 15 6.85 15 6.59V4.91C15.58 4.71 16 4.15 16 3.5C16 2.67 15.33 2 14.5 2H9.5C8.67 2 8 2.67 8 3.5C8 4.15 8.42 4.71 9 4.91V6.59C9 6.85 8.9 7.1 8.71 7.29L6.59 9.41C6.27 9.73 6 10.38 6 10.83V11.48C6 12.03 6.44 12.48 6.99 12.48L9.9 12.5C10.88 12.5 11.87 12.74 12.75 13.2C13.17 13.42 13.65 13.5 14.12 13.5H17C17.55 13.5 18 13.05 18 12.5V10.83C18 10.38 17.73 9.73 17.41 9.41Z" />
</svg>

<?xml version="1.0" encoding="UTF-8"?>
<svg width="24" height="24" viewBox="0 0 24 24" xmlns="http://www.w3.org/2000/svg">
 <path d="m18 16v3c0 1.65-1.35 3-3 3h-6c-1.65 0-3-1.35-3-3v-4.01c0-0.55 0.45-1 1.01-1l2.88 0.01c0.69 0 1.37 0.15 2 0.45 0.69 0.32 1.42 0.55 2.19 0.55h2.92c0.55 0 1 0.45 1 1z"/>
 <path d="m17.41 9.41-2.12-2.12c-0.19-0.19-0.29-0.44-0.29-0.7v-1.68c0.58-0.2 1-0.76 1-1.41 0-0.83-0.67-1.5-1.5-1.5h-5c-0.83 0-1.5 0.67-1.5 1.5 0 0.65 0.42 1.21 1 1.41v1.68c0 0.26-0.1 0.51-0.29 0.7l-2.12 2.12c-0.32 0.32-0.59 0.97-0.59 1.42v0.65c0 0.55 0.44 1 0.99 1l2.91 0.02c0.98 0 1.97 0.24 2.85 0.7 0.42 0.22 0.9 0.3 1.37 0.3h2.88c0.55 0 1-0.45 1-1v-1.67c0-0.45-0.27-1.1-0.59-1.42z"/>
</svg>
